;FLAVOR:Marlin
;TIME:5242
;Filament used: 7.88663m
;Layer height: 0.15
;MINX:82.2
;MINY:47.56
;MINZ:0.36
;MAXX:118.177
;MAXY:113.309
;MAXZ:30.41
;Generated with Cura_SteamEngine 4.1.0
M140 S60
M105
M190 S60
M104 S195
M105
M109 S195
M82 ;absolute extrusion mode
G21 ;metric values
 G90 ;absolute positioning
 M82 ;set extruder to absolute mode
 M107 ;start with the fan off
 G28 X0 Y0 ;move X/Y to min endstops
 G28 Z0 ;move Z to min endstops
 G1 Z15.0 F120 ;move the platform down 15mm
 G92 E0 ;zero the extruded length
 G1 F200 E6 ;extrude 6 mm of feed stock
 G92 E0 ;zero the extruded length again
 G1 F120 
 ;Put printing message on LCD screen
 M117 Printing...
G92 E0
G92 E0
G1 F1500 E-7.5
;LAYER_COUNT:195
;LAYER:-7
M107
G0 F7200 X82.808 Y49.098 Z0.36
;TYPE:SUPPORT-INTERFACE
G1 F1500 E0
G1 F1200 X82.841 Y49.048 E0.01004
G1 X83.053 Y48.767 E0.06905
G1 X83.104 Y48.708 E0.08212
G1 X83.224 Y48.579 E0.11166
G1 X83.343 Y48.469 E0.13882
G1 X83.452 Y48.376 E0.16284
G1 X83.798 Y48.132 E0.23381
G1 X84.182 Y47.945 E0.30541
G1 X84.538 Y47.836 E0.36782
G1 X84.61 Y47.821 E0.38015
G1 X84.956 Y47.772 E0.43873
G1 X85.047 Y47.766 E0.45402
G1 X85.208 Y47.761 E0.48102
G1 X94.255 Y47.761 E1.99758
G1 X94.474 Y47.77 E2.03432
G1 X94.618 Y47.782 E2.05854
G1 X95.038 Y47.856 E2.13003
G1 X95.384 Y47.972 E2.1912
G1 X95.433 Y47.994 E2.20021
G1 X95.765 Y48.17 E2.2632
G1 X95.816 Y48.204 E2.27347
G1 X96.103 Y48.419 E2.33358
G1 X96.314 Y48.614 E2.38175
G1 X96.831 Y49.041 E2.49415
G1 X97.408 Y49.405 E2.60851
G1 X98.027 Y49.694 E2.72303
G1 X98.677 Y49.903 E2.83748
G1 X99.347 Y50.028 E2.95173
G1 X100.029 Y50.068 E3.06625
G1 X100.711 Y50.021 E3.18085
G1 X101.381 Y49.888 E3.29535
G1 X102.029 Y49.672 E3.40985
G1 X102.643 Y49.377 E3.52404
G1 X103.215 Y49.007 E3.63824
G1 X103.645 Y48.65 E3.73192
G1 X103.817 Y48.492 E3.77107
G1 X103.959 Y48.371 E3.80235
G1 X104.298 Y48.132 E3.87188
G1 X104.682 Y47.945 E3.94347
G1 X105.038 Y47.836 E4.00589
G1 X105.11 Y47.821 E4.01821
G1 X105.456 Y47.772 E4.07679
G1 X105.547 Y47.766 E4.09208
G1 X105.708 Y47.761 E4.11908
G1 X114.755 Y47.761 E5.63564
G1 X114.974 Y47.77 E5.67238
G1 X115.118 Y47.782 E5.69661
G1 X115.538 Y47.856 E5.7681
G1 X115.884 Y47.972 E5.82927
G1 X115.933 Y47.994 E5.83827
G1 X116.265 Y48.17 E5.90126
G1 X116.316 Y48.204 E5.91154
G1 X116.602 Y48.419 E5.97152
G1 X116.773 Y48.575 E6.01032
G1 X116.891 Y48.703 E6.0395
G1 X116.985 Y48.813 E6.06376
G1 X117.229 Y49.159 E6.13473
G1 X117.416 Y49.543 E6.20632
G1 X117.525 Y49.898 E6.26858
G1 X117.54 Y49.971 E6.28107
G1 X117.589 Y50.317 E6.33965
G1 X117.6 Y50.557 E6.37992
G1 X117.6 Y65.173 E8.83002
G1 X117.594 Y65.334 E8.85702
G1 X117.576 Y65.581 E8.89854
G1 X117.555 Y65.772 E8.93075
G1 X117.347 Y67.151 E9.16453
G1 X117.306 Y67.368 E9.20155
G1 X117.273 Y67.506 E9.22533
G1 X117.162 Y67.854 E9.28656
G1 X117.046 Y68.121 E9.33536
G1 X116.438 Y69.332 E9.56251
G1 X116.347 Y69.497 E9.5941
G1 X116.252 Y69.651 E9.62443
G1 X116.043 Y69.943 E9.68463
G1 X115.96 Y70.04 E9.70603
G1 X115.823 Y70.188 E9.73983
G1 X114.88 Y71.14 E9.96446
G1 X114.748 Y71.264 E9.99482
G1 X114.606 Y71.384 E10.02598
G1 X114.334 Y71.583 E10.08248
G1 X114.203 Y71.664 E10.10829
G1 X114.071 Y71.738 E10.13366
G1 X112.845 Y72.369 E10.3648
G1 X112.695 Y72.439 E10.39255
G1 X112.522 Y72.512 E10.42402
G1 X112.193 Y72.619 E10.48202
G1 X112.046 Y72.654 E10.50735
G1 X111.906 Y72.682 E10.53128
G1 X110.535 Y72.908 E10.76421
G1 X110.374 Y72.927 E10.79138
G1 X109.893 Y72.958 E10.87218
G1 X90.22 Y72.961 E14.16999
G1 X90.036 Y72.954 E14.20085
G1 X89.794 Y72.937 E14.24152
G1 X89.629 Y72.918 E14.26936
G1 X88.204 Y72.708 E14.51082
G1 X88.038 Y72.676 E14.53915
G1 X87.862 Y72.635 E14.56945
G1 X87.504 Y72.521 E14.63243
G1 X87.374 Y72.468 E14.65596
G1 X87.224 Y72.4 E14.68357
G1 X86.012 Y71.79 E14.91102
G1 X85.854 Y71.703 E14.94126
G1 X85.714 Y71.616 E14.96889
G1 X85.419 Y71.404 E15.02978
G1 X85.31 Y71.311 E15.0538
G1 X85.18 Y71.193 E15.08323
G1 X84.22 Y70.241 E15.30987
G1 X84.093 Y70.105 E15.34106
G1 X83.978 Y69.97 E15.37079
G1 X83.775 Y69.69 E15.42876
G1 X83.699 Y69.567 E15.453
G1 X83.617 Y69.421 E15.48107
G1 X82.991 Y68.205 E15.71034
G1 X82.922 Y68.055 E15.73801
G1 X82.849 Y67.883 E15.76933
G1 X82.742 Y67.554 E15.82733
G1 X82.675 Y67.249 E15.87968
G1 X82.454 Y65.901 E16.10866
G1 X82.433 Y65.73 E16.13754
G1 X82.411 Y65.461 E16.18278
G1 X82.403 Y65.256 E16.21717
G1 X82.4 Y50.609 E18.67247
G1 X82.41 Y50.381 E18.71072
G1 X82.421 Y50.246 E18.73343
G1 X82.492 Y49.83 E18.80417
G1 X82.631 Y49.43 E18.87516
G1 X82.808 Y49.098 E18.93822
G1 F1500 E11.43822
G0 F7200 X84.842 Y71.535
G0 X84.329 Y87.668
G0 X83.601 Y88.727
G1 F1500 E18.93822
G1 F1200 X83.72 Y88.617 E18.96539
G1 X83.829 Y88.524 E18.98941
G1 X84.175 Y88.28 E19.06038
G1 X84.559 Y88.093 E19.13198
G1 X84.915 Y87.984 E19.19439
G1 X84.987 Y87.969 E19.20672
G1 X85.333 Y87.92 E19.2653
G1 X85.424 Y87.914 E19.28058
G1 X85.585 Y87.909 E19.30759
G1 X94.632 Y87.909 E20.82414
G1 X94.851 Y87.918 E20.86089
G1 X94.995 Y87.93 E20.88511
G1 X95.415 Y88.004 E20.9566
G1 X95.761 Y88.12 E21.01777
G1 X95.81 Y88.142 E21.02678
G1 X96.142 Y88.318 E21.08977
G1 X96.193 Y88.352 E21.10004
G1 X96.48 Y88.567 E21.16015
G1 X96.691 Y88.762 E21.20831
G1 X97.208 Y89.189 E21.32072
G1 X97.785 Y89.553 E21.43508
G1 X98.404 Y89.842 E21.54959
G1 X99.054 Y90.051 E21.66405
G1 X99.724 Y90.176 E21.7783
G1 X100.406 Y90.216 E21.89282
G1 X101.088 Y90.169 E22.00742
G1 X101.758 Y90.036 E22.12192
G1 X102.406 Y89.82 E22.23642
G1 X103.02 Y89.525 E22.35061
G1 X103.592 Y89.155 E22.46481
G1 X104.022 Y88.798 E22.55849
G1 X104.194 Y88.64 E22.59764
G1 X104.336 Y88.519 E22.62892
G1 X104.675 Y88.28 E22.69845
G1 X105.059 Y88.093 E22.77004
G1 X105.415 Y87.984 E22.83245
G1 X105.487 Y87.969 E22.84478
G1 X105.833 Y87.92 E22.90336
G1 X105.924 Y87.914 E22.91865
G1 X106.085 Y87.909 E22.94565
G1 X115.132 Y87.909 E24.46221
G1 X115.351 Y87.918 E24.49895
G1 X115.495 Y87.93 E24.52317
G1 X115.915 Y88.004 E24.59466
G1 X116.261 Y88.12 E24.65584
G1 X116.31 Y88.142 E24.66484
G1 X116.642 Y88.318 E24.72783
G1 X116.693 Y88.352 E24.73811
G1 X116.979 Y88.567 E24.79808
G1 X117.15 Y88.723 E24.83689
G1 X117.268 Y88.851 E24.86607
G1 X117.362 Y88.961 E24.89032
G1 X117.606 Y89.307 E24.9613
G1 X117.793 Y89.691 E25.03289
G1 X117.902 Y90.046 E25.09514
G1 X117.917 Y90.119 E25.10764
G1 X117.966 Y90.465 E25.16622
G1 X117.977 Y90.705 E25.20649
G1 X117.977 Y105.316 E27.65575
G1 X117.971 Y105.482 E27.68359
G1 X117.953 Y105.729 E27.72511
G1 X117.932 Y105.92 E27.75732
G1 X117.724 Y107.299 E27.9911
G1 X117.684 Y107.51 E28.0271
G1 X117.653 Y107.641 E28.04966
G1 X117.535 Y108.009 E28.11444
G1 X117.484 Y108.133 E28.13692
G1 X117.416 Y108.284 E28.16468
G1 X116.811 Y109.489 E28.39071
G1 X116.719 Y109.653 E28.42223
G1 X116.624 Y109.809 E28.45284
G1 X116.42 Y110.093 E28.51146
G1 X116.338 Y110.189 E28.53263
G1 X116.208 Y110.33 E28.56477
G1 X115.266 Y111.278 E28.7888
G1 X115.107 Y111.426 E28.82522
G1 X114.979 Y111.536 E28.85351
G1 X114.718 Y111.726 E28.90762
G1 X114.574 Y111.815 E28.936
G1 X114.432 Y111.894 E28.96324
G1 X113.256 Y112.501 E29.18509
G1 X113.053 Y112.596 E29.22266
G1 X112.907 Y112.657 E29.24918
G1 X112.566 Y112.767 E29.30924
G1 X112.286 Y112.83 E29.35735
G1 X110.912 Y113.056 E29.59077
G1 X110.751 Y113.075 E29.61795
G1 X110.484 Y113.097 E29.66286
G1 X110.27 Y113.106 E29.69876
G1 X90.597 Y113.109 E32.99657
G1 X90.413 Y113.102 E33.02744
G1 X90.171 Y113.085 E33.0681
G1 X90.006 Y113.066 E33.09595
G1 X88.58 Y112.856 E33.33757
G1 X88.408 Y112.823 E33.36692
G1 X88.232 Y112.782 E33.39722
G1 X87.895 Y112.676 E33.45644
G1 X87.755 Y112.618 E33.48184
G1 X87.581 Y112.539 E33.51387
G1 X86.395 Y111.941 E33.73653
G1 X86.231 Y111.85 E33.76797
G1 X86.083 Y111.76 E33.797
G1 X85.786 Y111.545 E33.85847
G1 X85.695 Y111.467 E33.87856
G1 X85.549 Y111.333 E33.91178
G1 X84.608 Y110.401 E34.13379
G1 X84.472 Y110.256 E34.16712
G1 X84.352 Y110.116 E34.19803
G1 X84.155 Y109.845 E34.25419
G1 X84.001 Y109.584 E34.30499
G1 X83.362 Y108.343 E34.53898
G1 X83.301 Y108.211 E34.56335
G1 X83.224 Y108.024 E34.59725
G1 X83.117 Y107.698 E34.65477
G1 X83.077 Y107.53 E34.68372
G1 X83.052 Y107.402 E34.70558
G1 X82.83 Y106.049 E34.93542
G1 X82.81 Y105.882 E34.96361
G1 X82.787 Y105.594 E35.01204
G1 X82.78 Y105.406 E35.04358
G1 X82.777 Y90.757 E37.49921
G1 X82.787 Y90.529 E37.53746
G1 X82.798 Y90.394 E37.56017
G1 X82.869 Y89.978 E37.63091
G1 X83.008 Y89.578 E37.7019
G1 X83.185 Y89.246 E37.76497
G1 X83.218 Y89.196 E37.77501
G1 X83.43 Y88.915 E37.83402
G1 X83.481 Y88.856 E37.84709
G1 X83.601 Y88.727 E37.87662
G0 F7200 X84 Y88.403
G1 F1200 X84 Y109.582 E41.42688
G0 F7200 X85.2 Y110.987
G1 F1200 X85.2 Y87.938 E45.29061
G0 F7200 X86.4 Y87.909
G1 F1200 X86.4 Y111.943 E49.31946
G0 F7200 X87.6 Y112.547
G1 F1200 X87.6 Y87.909 E53.44955
G0 F7200 X88.8 Y87.909
G1 F1200 X88.8 Y112.888 E57.63681
G0 F7200 X90 Y113.065
G1 F1200 X90 Y87.909 E61.85373
G0 F7200 X91.2 Y87.909
G1 F1200 X91.2 Y113.109 E66.07804
G0 F7200 X92.4 Y113.109
G1 F1200 X92.4 Y87.909 E70.30234
G0 F7200 X93.6 Y87.909
G1 F1200 X93.6 Y113.109 E74.52664
G0 F7200 X94.8 Y113.109
G1 F1200 X94.8 Y87.916 E78.74977
G0 F7200 X96 Y88.243
G1 F1200 X96 Y113.109 E82.91809
G0 F7200 X97.2 Y113.108
G1 F1200 X97.2 Y89.183 E86.92866
G0 F7200 X98.4 Y89.841
G1 F1200 X98.4 Y113.108 E90.82893
G0 F7200 X99.6 Y113.108
G1 F1200 X99.6 Y90.153 E94.67691
G0 F7200 X100.8 Y90.188
G1 F1200 X100.8 Y113.108 E98.51901
G0 F7200 X102 Y113.108
G1 F1200 X102 Y89.955 E102.40017
G0 F7200 X103.2 Y89.408
G1 F1200 X103.2 Y113.108 E106.37303
G0 F7200 X104.4 Y113.107
G1 F1200 X104.4 Y88.473 E110.50245
G0 F7200 X105.6 Y87.952
G1 F1200 X105.6 Y113.107 E114.71921
G0 F7200 X106.8 Y113.107
G1 F1200 X106.8 Y87.909 E118.94318
G0 F7200 X108 Y87.909
G1 F1200 X108 Y113.107 E123.16715
G0 F7200 X109.2 Y113.107
G1 F1200 X109.2 Y87.909 E127.39112
G0 F7200 X110.4 Y87.909
G1 F1200 X110.4 Y113.101 E131.61408
G0 F7200 X111.6 Y112.943
G1 F1200 X111.6 Y87.909 E135.81056
G0 F7200 X112.8 Y87.909
G1 F1200 X112.8 Y112.692 E139.96496
G0 F7200 X114 Y112.117
G1 F1200 X114 Y87.909 E144.02297
G0 F7200 X115.2 Y87.912
G1 F1200 X115.2 Y111.34 E147.95023
G0 F7200 X116.4 Y110.117
G1 F1200 X116.4 Y88.19 E151.62588
G0 F7200 X117.6 Y89.299
G1 F1200 X117.6 Y107.807 E154.72839
G0 F7200 X82.8 Y105.756
G1 F1200 X82.8 Y90.382 E157.30555
G1 F1500 E149.80555
G0 F7200 X84.329 Y87.668
G0 X87.761 Y73.106
G0 X87.6 Y72.551
G1 F1500 E157.30555
G1 F1200 X87.6 Y47.761 E161.46113
G0 F7200 X86.4 Y47.761
G1 F1200 X86.4 Y71.985 E165.52182
G0 F7200 X85.2 Y71.211
G1 F1200 X85.2 Y47.761 E169.45277
G0 F7200 X84 Y48.033
G1 F1200 X84 Y69.995 E173.13429
G0 F7200 X82.8 Y67.732
G1 F1200 X82.8 Y49.113 E176.25541
G0 F7200 X88.8 Y47.761
G1 F1200 X88.8 Y72.795 E180.45189
G0 F7200 X90 Y72.951
G1 F1200 X90 Y47.761 E184.67451
G0 F7200 X91.2 Y47.761
G1 F1200 X91.2 Y72.961 E188.89882
G0 F7200 X92.4 Y72.961
G1 F1200 X92.4 Y47.761 E193.12312
G0 F7200 X93.6 Y47.761
G1 F1200 X93.6 Y72.961 E197.34742
G0 F7200 X94.8 Y72.961
G1 F1200 X94.8 Y47.815 E201.56267
G0 F7200 X96 Y48.342
G1 F1200 X96 Y72.961 E205.68958
G0 F7200 X97.2 Y72.96
G1 F1200 X97.2 Y49.274 E209.66009
G0 F7200 X98.4 Y49.814
G1 F1200 X98.4 Y72.96 E213.54008
G0 F7200 X99.6 Y72.96
G1 F1200 X99.6 Y50.043 E217.38168
G0 F7200 X100.8 Y50.003
G1 F1200 X100.8 Y72.96 E221.22999
G0 F7200 X102 Y72.96
G1 F1200 X102 Y49.681 E225.13227
G0 F7200 X103.2 Y49.016
G1 F1200 X103.2 Y72.96 E229.14603
G0 F7200 X104.4 Y72.959
G1 F1200 X104.4 Y48.082 E233.31619
G0 F7200 X105.6 Y47.764
G1 F1200 X105.6 Y72.959 E237.53966
G0 F7200 X106.8 Y72.959
G1 F1200 X106.8 Y47.761 E241.76362
G0 F7200 X108 Y47.761
G1 F1200 X108 Y72.959 E245.98759
G0 F7200 X109.2 Y72.959
G1 F1200 X109.2 Y47.761 E250.21156
G0 F7200 X110.4 Y47.761
G1 F1200 X110.4 Y72.924 E254.42966
G0 F7200 X111.6 Y72.733
G1 F1200 X111.6 Y47.761 E258.61574
G0 F7200 X112.8 Y47.761
G1 F1200 X112.8 Y72.39 E262.74433
G0 F7200 X114 Y71.775
G1 F1200 X114 Y47.761 E266.76982
G0 F7200 X115.2 Y47.797
G1 F1200 X115.2 Y70.817 E270.62869
G0 F7200 X116.4 Y69.401
G1 F1200 X116.4 Y48.268 E274.17124
G0 F7200 X117.6 Y50.557
G1 F1200 X117.6 Y65.173 E276.62133
G0 F7200 X117.599 Y65.173
;TIME_ELAPSED:89.294912
;LAYER:-6
M140 S60
G0 X117.599 Y65.173 Z0.585
;TYPE:SUPPORT
G1 F1800 X117.599 Y63.859 E276.759
G1 X102.931 Y49.191 E278.9323
G1 X103.644 Y48.649 E279.02614
G0 F7200 X103.727 Y48.573
G1 F1800 X117.599 Y62.445 E281.0815
G1 X117.599 Y61.031 E281.22965
G1 X104.569 Y48 E283.16033
G1 X105.109 Y47.82 E283.21996
G1 X105.706 Y47.76 E283.28283
G0 F7200 X105.744 Y47.761
G1 F1800 X117.599 Y59.616 E285.03934
G1 X117.599 Y58.202 E285.18748
G1 X107.158 Y47.761 E286.73449
G1 X108.572 Y47.761 E286.88263
G1 X117.599 Y56.788 E288.22013
G1 X117.599 Y55.374 E288.36827
G1 X109.986 Y47.761 E289.49626
G1 X111.401 Y47.761 E289.64451
G1 X117.599 Y53.96 E290.56292
G1 X117.599 Y52.545 E290.71117
G1 X112.815 Y47.761 E291.42
G1 X114.229 Y47.761 E291.56814
G1 X117.599 Y51.131 E292.06746
G1 X117.588 Y50.317 E292.15275
G1 X117.405 Y49.523 E292.23812
G1 X115.838 Y47.956 E292.4703
G1 X116.315 Y48.204 E292.52662
G1 X116.772 Y48.574 E292.58823
G1 X117.228 Y49.159 E292.66594
G0 F7200 X117.596 Y65.27
G1 F1800 X102.005 Y49.679 E294.976
G1 X100.896 Y49.984 E295.0965
G1 X117.44 Y66.528 E297.54777
G1 X117.345 Y67.151 E297.61379
G1 X117.207 Y67.71 E297.67412
G1 X99.537 Y50.039 E300.29229
G0 F7200 X99.346 Y50.028
G1 F1800 X98.676 Y49.902 E300.36372
G1 X98.026 Y49.694 E300.43522
G1 X97.559 Y49.476 E300.48921
G1 X116.764 Y68.681 E303.33475
G1 X116.437 Y69.332 E303.41107
G0 F7200 X116.278 Y69.609
G1 F1800 X94.437 Y47.768 E306.64717
G0 F7200 X94.254 Y47.76
G1 F1800 X93.015 Y47.76 E306.77698
G1 X115.633 Y70.379 E310.12828
G1 X114.93 Y71.089 E310.23296
G1 X91.601 Y47.76 E313.68954
G1 X90.187 Y47.76 E313.83768
G1 X114.129 Y71.703 E317.38515
G1 X113.198 Y72.186 E317.49504
G1 X88.773 Y47.76 E321.11408
G1 X87.358 Y47.76 E321.26233
G1 X112.21 Y72.612 E324.94456
G1 X111.012 Y72.828 E325.07209
G1 X85.944 Y47.76 E328.78633
G1 X85.207 Y47.76 E328.86354
G1 X84.594 Y47.824 E328.92811
G1 X109.728 Y72.958 E332.65213
G1 X108.313 Y72.958 E332.80038
G1 X83.616 Y48.26 E336.45971
G0 F7200 X83.342 Y48.469
G1 F1800 X82.904 Y48.962 E336.52881
G1 X106.899 Y72.958 E340.08413
G1 X105.485 Y72.958 E340.23228
G1 X82.471 Y49.944 E343.64218
G1 X82.399 Y50.609 E343.71225
G1 X82.399 Y51.286 E343.78318
G1 X104.071 Y72.959 E346.99432
G1 X102.657 Y72.959 E347.14246
G1 X82.399 Y52.7 E350.14409
G1 X82.399 Y54.114 E350.29223
G1 X101.243 Y72.959 E353.08435
G1 X99.83 Y72.959 E353.23239
G1 X82.399 Y55.529 E355.81501
G1 X82.399 Y56.944 E355.96326
G1 X98.415 Y72.959 E358.33621
G1 X97.001 Y72.959 E358.48436
G1 X82.4 Y58.358 E360.64773
G1 X82.4 Y59.773 E360.79598
G1 X95.587 Y72.959 E362.74978
G1 X94.173 Y72.96 E362.89792
G1 X82.4 Y61.187 E364.64229
G1 X82.401 Y62.602 E364.79053
G1 X92.759 Y72.96 E366.32524
G1 X91.345 Y72.96 E366.47339
G1 X82.401 Y64.016 E367.79859
G1 X82.409 Y65.438 E367.94757
G1 X89.916 Y72.945 E369.05985
G1 X88.273 Y72.717 E369.23364
G1 X82.648 Y67.091 E370.06715
G0 F7200 X82.741 Y67.554
G1 F1800 X82.99 Y68.204 E370.14008
G1 X83.683 Y69.541 E370.29785
G1 X85.83 Y71.688 E370.61596
G1 X85.418 Y71.403 E370.66845
G1 X84.219 Y70.241 E370.84338
G1 X83.774 Y69.69 E370.91759
G1 F1500 E363.41759
G0 F7200 X84.842 Y71.535
G0 X85.283 Y87.441
G0 X84.094 Y88.336
G1 F1500 E370.91759
G1 F1800 X108.862 Y113.105 E374.58744
G1 X110.276 Y113.104 E374.73559
G1 X85.121 Y87.949 E378.46271
G1 X86.494 Y87.908 E378.60662
G1 X111.538 Y112.952 E382.3173
G1 X112.717 Y112.717 E382.44326
G1 X87.908 Y87.908 E386.11911
G1 X89.323 Y87.908 E386.26736
G1 X113.69 Y112.275 E389.87773
